frontend/public/svg/health/blood-bag.svg

<svg width="145" height="153" viewBox="0 0 145 153" fill="none" xmlns="http://www.w3.org/2000/svg">
<g clip-path="url(#clip0)">
<path d="M136.458 68.1338C141.512 68.5276 143.928 71.3177 144.138 75.8129C144.335 80.0476 144.506 84.3637 143.914 88.5341C143.149 93.9305 140.992 95.4361 135.5 95.803C134.719 95.8549 133.941 95.9304 132.803 96.0249C132.803 98.2564 132.929 100.462 132.761 102.647C132.623 104.202 132.282 105.731 131.745 107.196C131.508 107.841 131.059 108.386 130.473 108.742C129.885 109.098 129.195 109.245 128.514 109.158C127.058 109.08 125.844 108.336 125.533 106.856C125.196 105.342 125.061 103.789 125.131 102.238C125.336 100.315 125.639 98.4015 126.038 96.5079C125.213 96.3911 124.558 96.311 123.907 96.2034C120.649 95.6586 118.864 93.8865 118.762 90.5773C118.588 84.9708 118.558 79.3578 118.609 73.7488C118.633 71.0729 119.96 69.7044 122.678 69.2017C124.086 68.9391 125.53 68.8801 127.198 68.7028C126.928 62.7303 126.656 56.9237 126.405 51.1177C126.13 44.7512 120.969 40.1897 116.312 39.6246C111.05 38.9853 105.471 41.5201 102.59 47.4022C100.569 51.6805 99.4482 56.3281 99.296 61.0573C98.7591 72.4925 98.5687 83.945 98.3311 95.3922C98.1342 104.815 98.232 114.246 97.8881 123.662C97.6912 129.105 95.8482 134.19 93.1119 138.935C88.4611 146.999 81.1981 150.933 72.2319 151.914C66.5276 152.538 60.8052 152.457 55.1988 150.798C47.9305 148.644 42.4901 144.47 39.213 137.457C35.1293 128.718 33.132 119.667 34.1375 110.016C34.3219 108.244 34.3666 106.455 34.4953 104.347C32.6877 104.179 31.054 104.068 29.4315 103.869C26.5588 103.516 25.5744 102.778 25.5245 101.047C25.4759 99.382 26.4669 98.54 29.1933 97.9086C29.5094 97.82 29.8208 97.7149 30.126 97.5942C29.8254 93.8714 29.7111 93.5479 26.3494 92.7583C21.9867 91.7337 17.565 90.9593 13.1722 90.0627C12.294 89.8835 11.4237 89.661 10.5606 89.4188C6.15918 88.1849 4.00366 85.8333 3.64596 81.399C2.68967 69.5377 1.43292 57.6798 1.09031 45.7974C0.822523 36.5116 1.74268 27.1916 2.14436 17.8874C2.16164 17.3258 2.23102 16.7671 2.3517 16.2183C5.01841 4.83811 8.72941 2.93999 18.8875 1.7238C32.3313 0.113801 45.8177 1.01881 59.2418 2.37677C65.6404 3.02392 69.7857 6.97582 72.3211 12.7103C74.5336 17.7162 75.0377 23.1059 75.6599 28.4498C77.1957 41.6422 77.138 54.9002 76.9988 68.1541C76.9824 69.7254 76.9437 71.3006 76.8243 72.8666C76.1679 81.4699 71.8295 86.8749 63.5966 89.5147C60.3989 90.5399 57.2018 91.5933 54.0881 92.8416C52.644 93.4907 51.4193 94.5448 50.5624 95.8759C51.5075 95.8759 52.4532 95.8457 53.3971 95.8811C56.2889 95.9894 58.1713 97.602 58.2349 99.9944C58.3006 102.507 56.3146 104.36 53.3052 104.373C51.1761 104.382 49.0475 104.11 46.9157 104.033C45.2401 103.972 43.5605 104.021 41.4859 104.021C41.4859 106.932 41.4931 109.692 41.4859 112.451C41.4629 119.645 43.2298 126.395 46.1039 132.973C48.6164 138.725 52.8471 141.986 58.8408 143.355C63.6766 144.449 68.6837 144.549 73.5596 143.651C81.477 142.239 86.8374 136.606 88.408 127.784C89.1234 123.581 89.4745 119.324 89.4581 115.061C89.4771 108.664 89.0308 102.267 88.8569 95.868C88.4841 82.167 88.3561 68.4534 90.6467 54.893C91.3648 50.6996 92.6814 46.6312 94.5559 42.8123C99.7731 32.2335 113.666 27.5585 123.601 32.8184C130.493 36.467 134.794 42.1889 135.645 50.0145C136.225 55.3564 136.212 60.764 136.458 66.1427C136.48 66.6892 136.458 67.2392 136.458 68.1338ZM9.63968 46.3751C20.7751 42.5585 23.5672 42.5348 35.7331 44.5143C41.4968 45.3824 47.3099 45.8824 53.1372 46.0114C55.5 46.0908 57.9731 45.2403 60.2597 44.429C62.8516 43.5102 65.2913 42.16 68.1875 40.8152C67.6487 35.1457 67.1853 29.1219 66.4548 23.1309C66.1312 20.4642 65.5066 17.8427 64.5929 15.3165C63.252 11.6351 60.458 9.47517 56.4582 9.27827C48.8447 8.91007 41.2206 8.38493 33.6045 8.42497C28.2269 8.4803 22.8627 8.97078 17.5643 9.89182C12.3628 10.7739 10.8448 13.3382 11.0989 19.2295C12.9713 19.1421 14.847 19.1587 16.7176 19.2794C18.2271 19.4481 19.5537 20.3001 19.6135 22.0505C19.6666 23.612 18.5495 24.5026 17.2067 24.9384C16.1293 25.2344 15.0259 25.4256 13.9118 25.5095C12.7166 25.6519 11.5116 25.7063 10.0952 25.8179C9.98432 27.5375 9.88784 29.0378 9.76708 30.8677C11.3659 30.7502 12.5669 30.6348 13.7707 30.5829C14.773 30.505 15.7801 30.5078 16.782 30.5915C17.5208 30.6265 18.2252 30.9139 18.7776 31.4057C19.33 31.8974 19.6972 32.5638 19.8176 33.2935C20.1681 35.0309 19.5774 36.482 17.9976 37.2467C16.8772 37.7347 15.688 38.0467 14.4723 38.1715C12.9365 38.3822 11.3738 38.3914 9.63647 38.4997L9.63968 46.3751ZM43.0775 96.5191C43.5277 92.5496 44.5307 89.1025 47.8688 87.3304C51.8068 85.2373 56.0074 83.6358 60.1003 81.8257C61.6725 81.2376 63.2069 80.5524 64.6947 79.7746C67.2444 78.2414 68.7231 76.0689 68.6292 72.864C68.4382 66.3518 68.4376 59.8345 68.3667 53.3197C68.3522 52.013 68.3667 50.7063 68.3667 48.9486C67.4255 49.4252 66.5112 49.9528 65.6273 50.529C62.0338 53.237 57.8667 54.1283 53.5414 53.9209C48.7278 53.6899 43.919 53.1373 39.1389 52.4954C34.2498 51.8391 29.4191 50.7279 24.5235 50.1451C20.5917 49.5755 16.5815 50.3109 13.1077 52.2387C11.2214 53.323 9.72907 54.7289 10.1143 57.561C11.385 57.4206 12.4659 57.2236 13.5501 57.2026C14.6569 57.1636 15.7645 57.2417 16.8547 57.4356C17.6517 57.5287 18.3855 57.9151 18.9132 58.5196C19.4408 59.124 19.7246 59.9034 19.7092 60.7056C19.7302 62.4653 18.5758 63.6381 16.9934 64.1933C16.0217 64.4533 15.0186 64.5765 14.0129 64.5595C12.9195 64.6166 11.82 64.5726 10.6308 64.5726V69.9834C12.3477 70.0733 13.8101 70.0345 15.2336 70.2498C17.4652 70.5872 18.4858 71.655 18.5199 73.4002C18.5567 75.2728 17.3813 76.4404 15.0302 76.6997C13.6303 76.8546 12.208 76.8421 10.7371 76.9077V81.0426C12.0262 81.3367 13.201 81.6268 14.3857 81.8723C19.6508 82.9651 24.9325 83.9817 30.1805 85.1487C34.8405 86.1864 37.4087 89.3755 38.5993 93.8393C38.8533 94.789 39.1243 95.7341 39.4335 96.8387L43.0775 96.5191ZM124.548 75.3903C125.013 79.7313 125.437 83.6929 125.877 87.7951H135.937C136.204 83.6168 136.462 79.5777 136.731 75.3903H124.548Z" fill="black"/>
</g>
<defs>
<clipPath id="clip0">
<rect width="144.394" height="152.27" fill="white" transform="translate(0.525513 0.605469)"/>
</clipPath>
</defs>
</svg>

<svg xmlns="http://www.w3.org/2000/svg" width="145" height="153" fill="none" viewBox="0 0 145 153"><g clip-path="url(#a)"><path fill="#000" d="M136.458 68.134c5.054.394 7.47 3.184 7.68 7.679.197 4.235.368 8.55-.224 12.721-.765 5.396-2.922 6.902-8.414 7.269-.781.052-1.559.127-2.697.222 0 2.231.126 4.437-.042 6.622a17.8 17.8 0 0 1-1.016 4.549 3.03 3.03 0 0 1-3.231 1.962c-1.456-.078-2.67-.822-2.981-2.302a17.6 17.6 0 0 1-.402-4.618c.205-1.923.508-3.837.907-5.73-.825-.117-1.48-.197-2.131-.305-3.258-.544-5.043-2.317-5.145-5.626-.174-5.606-.204-11.22-.153-16.828.024-2.676 1.351-4.045 4.069-4.547 1.408-.263 2.852-.322 4.52-.5-.27-5.972-.542-11.778-.793-17.584-.275-6.367-5.436-10.928-10.093-11.493-5.262-.64-10.841 1.895-13.722 7.777a34.6 34.6 0 0 0-3.294 13.655c-.537 11.436-.727 22.888-.965 34.335-.197 9.423-.099 18.854-.443 28.27-.197 5.443-2.04 10.528-4.776 15.273-4.65 8.064-11.914 11.998-20.88 12.979-5.704.624-11.427.543-17.033-1.116-7.268-2.154-12.709-6.328-15.986-13.341-4.084-8.739-6.081-17.79-5.075-27.441.184-1.772.229-3.561.357-5.669-1.807-.168-3.441-.279-5.063-.478-2.873-.353-3.858-1.091-3.907-2.822-.05-1.665.942-2.507 3.668-3.138q.475-.134.933-.315c-.3-3.723-.415-4.046-3.777-4.836-4.362-1.024-8.784-1.799-13.177-2.695a37 37 0 0 1-2.611-.644c-4.402-1.234-6.557-3.586-6.915-8.02-.956-11.861-2.213-23.72-2.556-35.602-.267-9.285.653-18.605 1.054-27.91a9 9 0 0 1 .208-1.669C5.018 4.838 8.729 2.94 18.888 1.724c13.443-1.61 26.93-.705 40.354.653 6.398.647 10.544 4.599 13.08 10.333 2.212 5.006 2.716 10.396 3.338 15.74 1.536 13.192 1.478 26.45 1.339 39.704-.017 1.571-.055 3.147-.175 4.713-.656 8.603-4.995 14.008-13.227 16.648-3.198 1.025-6.395 2.078-9.509 3.327a8.2 8.2 0 0 0-3.526 3.034c.946 0 1.891-.03 2.835.005 2.892.108 4.774 1.721 4.838 4.113.066 2.513-1.92 4.366-4.93 4.379-2.129.009-4.257-.263-6.39-.34-1.675-.061-3.355-.012-5.43-.012 0 2.911.008 5.671 0 8.43-.022 7.194 1.745 13.944 4.619 20.522 2.512 5.752 6.743 9.013 12.737 10.382a36.6 36.6 0 0 0 14.719.296c7.917-1.412 13.277-7.045 14.848-15.867a74 74 0 0 0 1.05-12.723c.02-6.397-.427-12.794-.601-19.193-.373-13.701-.5-27.415 1.79-40.975a44.4 44.4 0 0 1 3.909-12.08c5.217-10.58 19.11-15.255 29.045-9.995 6.892 3.649 11.193 9.37 12.044 17.197.58 5.341.567 10.749.813 16.128.022.546 0 1.096 0 1.99M9.64 46.375c11.135-3.816 13.927-3.84 26.093-1.86a137 137 0 0 0 17.404 1.496c2.363.08 4.836-.77 7.123-1.582 2.592-.919 5.031-2.269 7.928-3.614-.54-5.67-1.003-11.693-1.733-17.684a35.6 35.6 0 0 0-1.862-7.815c-1.341-3.68-4.135-5.84-8.135-6.038-7.613-.368-15.237-.893-22.853-.853a99.6 99.6 0 0 0-16.04 1.467c-5.202.882-6.72 3.446-6.466 9.338a51 51 0 0 1 5.619.05c1.51.168 2.836 1.02 2.895 2.77.054 1.562-1.064 2.453-2.406 2.888a17.4 17.4 0 0 1-3.295.572c-1.195.142-2.4.196-3.817.308-.11 1.72-.207 3.22-.328 5.05 1.599-.118 2.8-.233 4.004-.285a19 19 0 0 1 3.011.009 3.23 3.23 0 0 1 3.036 2.702c.35 1.737-.24 3.188-1.82 3.953-1.12.488-2.31.8-3.526.925-1.535.21-3.098.22-4.836.328zM43.078 96.52c.45-3.97 1.453-7.416 4.79-9.189 3.939-2.093 8.14-3.694 12.232-5.504a41 41 0 0 0 4.595-2.051c2.55-1.534 4.028-3.706 3.934-6.911-.19-6.512-.191-13.03-.262-19.544-.015-1.307 0-2.614 0-4.371a29 29 0 0 0-2.74 1.58c-3.593 2.708-7.76 3.6-12.086 3.392-4.813-.231-9.622-.784-14.402-1.426-4.89-.656-9.72-1.767-14.616-2.35a18.16 18.16 0 0 0-11.415 2.094c-1.887 1.084-3.379 2.49-2.994 5.322 1.271-.14 2.352-.337 3.436-.358 1.107-.04 2.214.039 3.305.233a3.23 3.23 0 0 1 2.854 3.27c.021 1.76-1.133 2.932-2.716 3.487-.971.26-1.974.383-2.98.367-1.094.057-2.193.013-3.382.013v5.41c1.717.09 3.18.051 4.603.267 2.231.337 3.252 1.405 3.286 3.15.037 1.873-1.139 3.04-3.49 3.3-1.4.155-2.822.142-4.293.208v4.135c1.29.294 2.464.584 3.649.83 5.265 1.092 10.547 2.109 15.795 3.276 4.66 1.037 7.228 4.227 8.418 8.69.254.95.525 1.895.835 3zm81.47-21.129 1.329 12.405h10.06l.794-12.405z"/></g><defs><clipPath id="a"><path fill="#fff" d="M.526.605H144.92v152.27H.526z"/></clipPath></defs></svg>
